X:1
T:Bissau, 98.98.98.98.98
T:Bissau, 98.98.98.98.98
T:James McGranahan, 1878
T:Public Domain Courtesy of the Cyber Hymnal™
C:James McGranahan, 1878
Z:Public Domain
Z:Courtesy of the Cyber Hymnal™
%%score ( 1 2 ) ( 3 4 )
L:1/8
Q:1/4=90
M:6/8
K:Ab
V:1 treble 
V:2 treble 
V:3 bass 
V:4 bass 
V:1
 [CE] | [EA]>[EA][EA] [Ec][EB][EA] | [EA] [EG]4 E | [GB]>[GB][GB] [Bd][Ac][GB] | [Ac]3- [Ac]2 E | %5
 [EA]>[EA][EA] [Ec][EB][EA] | [EA] [EG]4 E | [GB]>[GB][GB] [Gd][Ac][EB] | [EA]3- [EA]2 [Ae] | %9
 [Ge]>[GB][GB] [GB][Ac][Bd] | [Bd] [Ac]4 [Ae] | [Ge]>[GB][GB] [GB][Ac][Bd] | [Ac]3- [Ac]2 E/E/ | %13
 [EA]<[EA][EA] [Ec]>[EB][EA] | [EA] [EG]4 E | [GB]<[GB][GB] [Gd]>[Ac][EB] | [EA]3- [EA]2 |] %17
V:2
 x | x6 | x5 E | x6 | x5 E | x6 | x5 E | x6 | x6 | x6 | x6 | x6 | x5 E/E/ | x6 | x5 E | x6 | x5 |] %17
V:3
 A, | [A,C]>[A,C][A,C] [A,E][A,D][A,C] | [E,C] [E,B,]4 [E,E] | [E,E]>[E,E][E,E] [E,E][E,E][E,E] | %4
 [A,E]3- [A,E]2 [E,D] | [A,,C]>[A,,C][A,,C] [A,,E][A,,D][A,,C] | [E,C] [E,B,]4 E, | %7
 [E,D]>[E,D][E,D] [E,B,][E,C][E,D] | [A,,C]3- [A,,C]2 [A,,C] | [E,B,]>[E,E][E,E] [E,E][E,E][E,E] | %10
 [A,E] [A,E]4 [A,C] | [E,B,]>[E,E][E,E] [E,E][E,E][E,E] | [A,E]3- [A,E]2 [E,D]/[E,D]/ | %13
 [A,,C]<[A,,C][A,,C] [A,,E]>[A,,D][A,,C] | [E,C] [E,B,]4 E, | [E,D]<[E,D][E,D] [E,B,]>[E,C][E,D] | %16
 [A,,C]3- [A,,C]2 |] %17
V:4
 A, | x6 | x6 | x6 | x6 | x6 | x5 E, | x6 | x6 | x6 | x6 | x6 | x6 | x6 | x5 E, | x6 | x5 |] %17

